packages/axiom-materials/src/icon_svgs/tag.svg

<svg height="16" viewBox="0 0 16 16" width="16" xmlns="http://www.w3.org/2000/svg"><path d="m6.50082556 5.50117947c0 .27610851-.11205113.5262068-.29313376.70727796-.18108262.18107116-.43019629.2921148-.70632229.2921148-.55325245 0-1.0004565-.44717574-1.0004565-1.00039316 0-.27610851.11105067-.5252064.2921333-.70627756.18108262-.18107116.43119675-.2931152.70732274-.2931152.552252 0 1.00045651.44817614 1.00045651 1.00039316m-3.00136951-3.00117947c-.276126 0-.52624012.11204403-.70732275.29311519-.18108263.18107117-.2921333.43016906-.2921333.70627757v4.20465244c0 .36414311 0 .76229958.37517119 1.13744702.37617164.37614782 5.43314431 5.43440218 5.43314431 5.43440218.39117849.3901534 1.02446746.3901534 1.41564595 0l2.27603855-2.2758944 2.2750381-2.27589443c.3911785-.39015333.3911785-1.02440259 0-1.41455592l-5.43314432-5.43440222c-.37617165-.37514743-.77335288-.37514743-1.1385195-.37514743z" fill-rule="evenodd"/></svg>

<?xml version="1.0" encoding="UTF-8"?>
<svg width="16px" height="16px" viewBox="0 0 16 16" version="1.1" xmlns="http://www.w3.org/2000/svg" xmlns:xlink="http://www.w3.org/1999/xlink">
    <!-- Generator: sketchtool 43.2 (39069) - http://www.bohemiancoding.com/sketch -->
    <title>tag</title>
    <desc>Created with sketchtool.</desc>
    <defs></defs>
    <g id="Page-1" stroke="none" stroke-width="1" fill="none" fill-rule="evenodd">
        <g id="tag" fill="#000000">
            <path d="M6.50082556,5.50117947 C6.50082556,5.77728798 6.38877443,6.02738627 6.2076918,6.20845743 C6.02660918,6.38952859 5.77749551,6.50057223 5.50136951,6.50057223 C4.94811706,6.50057223 4.50091301,6.05339649 4.50091301,5.50017907 C4.50091301,5.22407056 4.61196368,4.97497267 4.79304631,4.79390151 C4.97412893,4.61283035 5.22424306,4.50078631 5.50036905,4.50078631 C6.05262105,4.50078631 6.50082556,4.94896245 6.50082556,5.50117947 M3.49945605,2.5 C3.22333005,2.5 2.97321593,2.61204403 2.7921333,2.79311519 C2.61105067,2.97418636 2.5,3.22328425 2.5,3.49939276 L2.5,7.7040452 C2.5,8.06818831 2.5,8.46634478 2.87517119,8.84149222 C3.25134283,9.21764004 8.3083155,14.2758944 8.3083155,14.2758944 C8.69949399,14.6660478 9.33278296,14.6660478 9.72396145,14.2758944 L12,12 L14.2750381,9.72410557 C14.6662166,9.33395224 14.6662166,8.69970298 14.2750381,8.30954965 L8.84189378,2.87514743 C8.46572213,2.5 8.0685409,2.5 7.70337428,2.5 L3.49945605,2.5 Z" id="Tag"></path>
        </g>
    </g>
</svg>
